icon/gr/dxc.svg

<svg xmlns="http://www.w3.org/2000/svg" viewBox="0 0 24 24" height="1em" width="1em">
  <path fill-rule="evenodd" d="M12,14 L16,21 L8,21 L12,14 Z M12,10 L8,3 L16,3 L12,10 Z M2,18 C0.65763624,18 -0.00903042669,18 1.01172597e-13,18 L1.01172597e-13,6 L2,6 C5.3137085,6 8,8.6862915 8,12 C8,15.3137085 5.3137085,18 2,18 Z M22,18 C18.6862915,18 16,15.3137085 16,12 C16,8.6862915 18.6862915,6 22,6 L24,6 L24,18 C24.0090304,18 23.3423638,18 22,18 Z"/>
</svg>

<svg xmlns="http://www.w3.org/2000/svg" width="24" height="24"><path fill-rule="evenodd" d="m12 14 4 7H8l4-7Zm0-4L8 3h8l-4 7ZM2 18H0V6h2a6 6 0 1 1 0 12Zm20 0a6 6 0 1 1 0-12h2v12h-2Z"/></svg>
